Sources/FrostedUI/Resources/Icons.xcassets/infoOutline32.imageset/info-outline-32.svg

<svg width="32" height="32" viewBox="0 0 32 32" fill="none" xmlns="http://www.w3.org/2000/svg" data-fui-icon="true">
  <path
    d="M18.25 12C18.6642 12 19 12.3358 19 12.75V27.5H20.75C21.1642 27.5 21.5 27.8358 21.5 28.25C21.4999 28.6642 21.1642 29 20.75 29H10.75C10.3358 29 10.0001 28.6642 10 28.25C10 27.8358 10.3358 27.5 10.75 27.5H13V13.5H11.75C11.3358 13.5 11 13.1642 11 12.75C11 12.3358 11.3358 12 11.75 12H18.25ZM14.5 27.5H17.5V13.5H14.5V27.5ZM15.5 3C17.433 3 19 4.567 19 6.5C19 8.433 17.433 10 15.5 10C13.567 10 12 8.433 12 6.5C12 4.567 13.567 3 15.5 3ZM15.5 4.5C14.3954 4.5 13.5 5.39543 13.5 6.5C13.5 7.60457 14.3954 8.5 15.5 8.5C16.6046 8.5 17.5 7.60457 17.5 6.5C17.5 5.39543 16.6046 4.5 15.5 4.5Z"
    fill="currentColor"
  />
</svg>

<svg xmlns="http://www.w3.org/2000/svg" width="32" height="32" fill="none" data-fui-icon="true" viewBox="0 0 32 32"><path fill="currentColor" d="M18.25 12a.75.75 0 0 1 .75.75V27.5h1.75a.75.75 0 0 1 0 1.5h-10a.75.75 0 0 1 0-1.5H13v-14h-1.25a.75.75 0 0 1 0-1.5zM14.5 27.5h3v-14h-3zm1-24.5a3.5 3.5 0 1 1 0 7 3.5 3.5 0 0 1 0-7m0 1.5a2 2 0 1 0 0 4 2 2 0 0 0 0-4"/></svg>
